geofa_plugin/geofa_symboler/Friluftsliv, punkt/VANDLEGEPLADS.svg

<svg xmlns="http://www.w3.org/2000/svg" width="5.5mm" height="5.5mm" viewBox="0 0 15.591 15.591">
  <rect width="15.591" height="15.591" rx="7.795" fill="#0072bc"/>
  <g>
    <path d="M12.476,8.03h-.2V6.268a.211.211,0,0,0-.21-.21H9.516a.21.21,0,0,0-.209.21V8.03H9.172a.21.21,0,0,0-.209.209V9.285a.21.21,0,0,0,.209.209h.219a1.523,1.523,0,0,1-3.019,0H6.65a.21.21,0,0,0,.209-.209V8.239A.21.21,0,0,0,6.65,8.03H6.385A4.4,4.4,0,0,0,2.658,3.92a.216.216,0,0,0-.167.049.21.21,0,0,0-.072.159V6.614a.211.211,0,0,0,.135.2A1.527,1.527,0,0,1,3.52,8.03H3.347a.21.21,0,0,0-.21.209V9.285a.21.21,0,0,0,.21.209h.174a4.365,4.365,0,0,0,8.722,0h.233a.21.21,0,0,0,.21-.209V8.239A.21.21,0,0,0,12.476,8.03ZM9.726,6.477h2.129V8H9.726ZM6.44,9.075H3.557V8.449H6.44Zm-3.6-2.6v-2.1A3.984,3.984,0,0,1,5.979,8.03H3.96A1.96,1.96,0,0,0,2.838,6.475Zm5.044,6.772A3.969,3.969,0,0,1,3.924,9.494H5.943a1.95,1.95,0,0,0,3.877,0h2.019A3.968,3.968,0,0,1,7.882,13.247Zm4.384-4.172H9.382V8.449h2.884Z" fill="#fff"/>
    <path d="M10.732,4.289a4.106,4.106,0,0,1,.317-.469,1.589,1.589,0,0,0,.417-.846.737.737,0,1,0-1.469,0,1.589,1.589,0,0,0,.417.846A4.25,4.25,0,0,1,10.732,4.289Z" fill="#fff"/>
    <path d="M9.736,5.239a4.282,4.282,0,0,1,.557.108,4.282,4.282,0,0,1-.108-.557,1.582,1.582,0,0,0-.3-.893A.77.77,0,0,0,8.8,3.851a.77.77,0,0,0,.046,1.085A1.582,1.582,0,0,0,9.736,5.239Z" fill="#fff"/>
    <path d="M11.225,5.347a4.315,4.315,0,0,1,.557-.108,1.579,1.579,0,0,0,.893-.3.77.77,0,0,0,.046-1.085.77.77,0,0,0-1.085.046,1.59,1.59,0,0,0-.3.893A4.282,4.282,0,0,1,11.225,5.347Z" fill="#fff"/>
  </g>
</svg>

<?xml version="1.0" encoding="UTF-8"?>
<svg xmlns="http://www.w3.org/2000/svg" viewBox="0 0 15.59 15.59">
  <defs>
    <style>
      .cls-1 {
        fill: #071f39;
      }

      .cls-1, .cls-2 {
        stroke-width: 0px;
      }

      .cls-2 {
        fill: #fff;
      }
    </style>
  </defs>
  <g id="Cirkel">
    <rect class="cls-1" x="0" y="0" width="15.59" height="15.59" rx="7.8" ry="7.8"/>
  </g>
  <g id="ICONS">
    <g>
      <path class="cls-2" d="M12.48,8.03h-.2v-1.76c0-.12-.09-.21-.21-.21h-2.55c-.12,0-.21.09-.21.21v1.76h-.13c-.12,0-.21.09-.21.21v1.05c0,.12.09.21.21.21h.22c-.1.74-.74,1.32-1.51,1.32s-1.41-.58-1.51-1.32h.28c.12,0,.21-.09.21-.21v-1.05c0-.12-.09-.21-.21-.21h-.27c-.1-2.06-1.66-3.8-3.73-4.11-.06,0-.12,0-.17.05-.05.04-.07.1-.07.16v2.49c0,.09.05.17.14.2.53.2.89.68.97,1.22h-.17c-.12,0-.21.09-.21.21v1.05c0,.12.09.21.21.21h.17c.11,2.32,2.02,4.17,4.36,4.17s4.25-1.85,4.36-4.17h.23c.12,0,.21-.09.21-.21v-1.05c0-.12-.09-.21-.21-.21ZM9.73,6.48h2.13v1.52h-2.13v-1.52ZM6.44,9.08h-.3s0,0,0,0h-2.43s0,0,0,0h-.15v-.63h2.88v.63ZM2.84,6.47v-2.1c1.74.37,3.05,1.88,3.14,3.65h-2.02c-.07-.67-.5-1.27-1.12-1.55ZM7.88,13.25c-2.11,0-3.85-1.66-3.96-3.75h2.02c.11.98.93,1.74,1.94,1.74s1.83-.76,1.94-1.74h2.02c-.11,2.09-1.84,3.75-3.96,3.75ZM12.27,9.08h-.21s0,0,0,0h-2.43s0,0,0,0h-.24v-.63h2.88v.63Z"/>
      <path class="cls-2" d="M10.73,4.29c.09-.16.2-.32.32-.47.21-.29.42-.56.42-.85,0-.44-.33-.8-.73-.8s-.73.36-.73.8c0,.28.2.56.42.85.11.15.23.31.32.47Z"/>
      <path class="cls-2" d="M9.74,5.24c.19.03.38.06.56.11-.05-.18-.08-.37-.11-.56-.05-.36-.1-.69-.3-.89-.31-.31-.8-.33-1.08-.05s-.27.77.05,1.08c.2.2.54.25.89.3Z"/>
      <path class="cls-2" d="M11.23,5.35c.18-.05.37-.08.56-.11.36-.05.69-.1.89-.3.31-.31.33-.8.05-1.08s-.77-.27-1.08.05c-.2.2-.25.54-.3.89-.03.19-.06.38-.11.56Z"/>
    </g>
  </g>
</svg>
